assets/1. Persons/Foot/Dark/Color/Foot.Color.Dark.svg

<svg width="100%" height="100%" viewBox="0 0 32 32" fill="none" xmlns="http://www.w3.org/2000/svg">
<g filter="url(#filter0_ii_0_28)">
<path d="M29.7834 24.7237C29.1653 21.9927 28.3214 21.998 28.114 18.3594C27.9066 14.7208 27.4421 10.0625 22.0984 10.0625C19.6609 10.0625 16.4565 11.4755 16.2703 16.6562C16.2703 20.3584 11.5203 22.4531 9.12471 23.47C8.33174 23.8066 6.96854 24.4375 6.17651 24.4375C5.70776 24.4375 5.38839 24.1306 4.84839 24.1406C2.91089 24.1406 2.08276 25.9375 2.08276 27.2187C2.08276 28.5 2.95381 29.9237 4.95471 29.9237C6.33486 29.9237 22.8225 29.9237 25.8334 29.9237C28.8443 29.9237 30.4015 27.4548 29.7834 24.7237Z" fill="#482F2E"/>
<path d="M29.7834 24.7237C29.1653 21.9927 28.3214 21.998 28.114 18.3594C27.9066 14.7208 27.4421 10.0625 22.0984 10.0625C19.6609 10.0625 16.4565 11.4755 16.2703 16.6562C16.2703 20.3584 11.5203 22.4531 9.12471 23.47C8.33174 23.8066 6.96854 24.4375 6.17651 24.4375C5.70776 24.4375 5.38839 24.1306 4.84839 24.1406C2.91089 24.1406 2.08276 25.9375 2.08276 27.2187C2.08276 28.5 2.95381 29.9237 4.95471 29.9237C6.33486 29.9237 22.8225 29.9237 25.8334 29.9237C28.8443 29.9237 30.4015 27.4548 29.7834 24.7237Z" fill="url(#paint0_radial_0_28)"/>
</g>
<path d="M29.7834 24.7237C29.1653 21.9927 28.3214 21.998 28.114 18.3594C27.9066 14.7208 27.4421 10.0625 22.0984 10.0625C19.6609 10.0625 16.4565 11.4755 16.2703 16.6562C16.2703 20.3584 11.5203 22.4531 9.12471 23.47C8.33174 23.8066 6.96854 24.4375 6.17651 24.4375C5.70776 24.4375 5.38839 24.1306 4.84839 24.1406C2.91089 24.1406 2.08276 25.9375 2.08276 27.2187C2.08276 28.5 2.95381 29.9237 4.95471 29.9237C6.33486 29.9237 22.8225 29.9237 25.8334 29.9237C28.8443 29.9237 30.4015 27.4548 29.7834 24.7237Z" fill="url(#paint1_linear_0_28)"/>
<path d="M29.7834 24.7237C29.1653 21.9927 28.3214 21.998 28.114 18.3594C27.9066 14.7208 27.4421 10.0625 22.0984 10.0625C19.6609 10.0625 16.4565 11.4755 16.2703 16.6562C16.2703 20.3584 11.5203 22.4531 9.12471 23.47C8.33174 23.8066 6.96854 24.4375 6.17651 24.4375C5.70776 24.4375 5.38839 24.1306 4.84839 24.1406C2.91089 24.1406 2.08276 25.9375 2.08276 27.2187C2.08276 28.5 2.95381 29.9237 4.95471 29.9237C6.33486 29.9237 22.8225 29.9237 25.8334 29.9237C28.8443 29.9237 30.4015 27.4548 29.7834 24.7237Z" fill="url(#paint2_linear_0_28)"/>
<path d="M29.7834 24.7237C29.1653 21.9927 28.3214 21.998 28.114 18.3594C27.9066 14.7208 27.4421 10.0625 22.0984 10.0625C19.6609 10.0625 16.4565 11.4755 16.2703 16.6562C16.2703 20.3584 11.5203 22.4531 9.12471 23.47C8.33174 23.8066 6.96854 24.4375 6.17651 24.4375C5.70776 24.4375 5.38839 24.1306 4.84839 24.1406C2.91089 24.1406 2.08276 25.9375 2.08276 27.2187C2.08276 28.5 2.95381 29.9237 4.95471 29.9237C6.33486 29.9237 22.8225 29.9237 25.8334 29.9237C28.8443 29.9237 30.4015 27.4548 29.7834 24.7237Z" fill="url(#paint3_linear_0_28)"/>
<path d="M29.7834 24.7237C29.1653 21.9927 28.3214 21.998 28.114 18.3594C27.9066 14.7208 27.4421 10.0625 22.0984 10.0625C19.6609 10.0625 16.4565 11.4755 16.2703 16.6562C16.2703 20.3584 11.5203 22.4531 9.12471 23.47C8.33174 23.8066 6.96854 24.4375 6.17651 24.4375C5.70776 24.4375 5.38839 24.1306 4.84839 24.1406C2.91089 24.1406 2.08276 25.9375 2.08276 27.2187C2.08276 28.5 2.95381 29.9237 4.95471 29.9237C6.33486 29.9237 22.8225 29.9237 25.8334 29.9237C28.8443 29.9237 30.4015 27.4548 29.7834 24.7237Z" fill="url(#paint4_radial_0_28)"/>
<g filter="url(#filter1_f_0_28)">
<path d="M24.7878 11.8395C23.8416 11.8395 23.152 12.9678 23.4022 13.8804C23.7926 15.305 24.0248 16.976 24.0845 18.021C24.1864 19.8023 24.4794 20.4926 24.8053 21.2602C25.0122 21.7478 25.2324 22.2665 25.4253 23.1157C25.9217 25.3019 24.671 27.2783 22.2529 27.2783H25.9017C26.712 27.2783 29.847 27.2784 28.6032 23.5595C28.3804 23.0857 28.1298 22.6195 27.9109 22.2122C27.7045 21.8284 27.5263 21.4968 27.4259 21.2602C27.1 20.4926 27.0332 19.8023 26.9314 18.021C26.8487 16.5749 26.4359 13.9298 25.7302 12.3981C25.5636 12.0366 25.1859 11.8395 24.7878 11.8395V11.8395Z" fill="#64504E"/>
</g>
<g filter="url(#filter2_f_0_28)">
<circle cx="23.426" cy="19.0855" r="3.08554" fill="url(#paint5_radial_0_28)"/>
</g>
<g filter="url(#filter3_f_0_28)">
<path d="M20.055 17.4779C19.8952 17.4779 19.7428 17.5516 19.6547 17.685C19.2409 18.311 19 19.0613 19 19.8678C19 22.057 20.7747 23.8317 22.9639 23.8317C25.1531 23.8317 26.9278 22.057 26.9278 19.8678C26.9278 19.1596 26.742 18.4947 26.4166 17.9193C26.5806 18.2962 26.6716 18.7122 26.6716 19.1496C26.6716 20.8537 25.2902 22.2351 23.5861 22.2351C21.882 22.2351 20.5005 20.8537 20.5005 19.1496C20.5005 18.8657 20.5389 18.5909 20.6106 18.3298C20.7178 17.94 20.4593 17.4779 20.055 17.4779V17.4779Z" fill="url(#paint6_linear_0_28)"/>
</g>
<g filter="url(#filter4_f_0_28)">
<path d="M4.55682 26.9311H18.926" stroke="url(#paint7_linear_0_28)" stroke-width="2" stroke-linecap="round"/>
</g>
<defs>
<filter id="filter0_ii_0_28" x="2.08276" y="9.06248" width="28.3345" height="21.3613" filterUnits="userSpaceOnUse" color-interpolation-filters="sRGB">
<feFlood flood-opacity="0" result="BackgroundImageFix"/>
<feBlend mode="normal" in="SourceGraphic" in2="BackgroundImageFix" result="shape"/>
<feColorMatrix in="SourceAlpha" type="matrix" values="0 0 0 0 0 0 0 0 0 0 0 0 0 0 0 0 0 0 127 0" result="hardAlpha"/>
<feOffset dy="-1"/>
<feGaussianBlur stdDeviation="1.5"/>
<feComposite in2="hardAlpha" operator="arithmetic" k2="-1" k3="1"/>
<feColorMatrix type="matrix" values="0 0 0 0 0.266667 0 0 0 0 0.164706 0 0 0 0 0.262745 0 0 0 1 0"/>
<feBlend mode="normal" in2="shape" result="effect1_innerShadow_0_28"/>
<feColorMatrix in="SourceAlpha" type="matrix" values="0 0 0 0 0 0 0 0 0 0 0 0 0 0 0 0 0 0 127 0" result="hardAlpha"/>
<feOffset dx="0.5" dy="0.5"/>
<feGaussianBlur stdDeviation="1"/>
<feComposite in2="hardAlpha" operator="arithmetic" k2="-1" k3="1"/>
<feColorMatrix type="matrix" values="0 0 0 0 0.309804 0 0 0 0 0.254902 0 0 0 0 0.247059 0 0 0 1 0"/>
<feBlend mode="normal" in2="effect1_innerShadow_0_28" result="effect2_innerShadow_0_28"/>
</filter>
<filter id="filter1_f_0_28" x="19.7529" y="9.33949" width="11.6386" height="20.4388" filterUnits="userSpaceOnUse" color-interpolation-filters="sRGB">
<feFlood flood-opacity="0" result="BackgroundImageFix"/>
<feBlend mode="normal" in="SourceGraphic" in2="BackgroundImageFix" result="shape"/>
<feGaussianBlur stdDeviation="1.25" result="effect1_foregroundBlur_0_28"/>
</filter>
<filter id="filter2_f_0_28" x="19.3405" y="15" width="8.17108" height="8.17108" filterUnits="userSpaceOnUse" color-interpolation-filters="sRGB">
<feFlood flood-opacity="0" result="BackgroundImageFix"/>
<feBlend mode="normal" in="SourceGraphic" in2="BackgroundImageFix" result="shape"/>
<feGaussianBlur stdDeviation="0.5" result="effect1_foregroundBlur_0_28"/>
</filter>
<filter id="filter3_f_0_28" x="18" y="16.4779" width="9.9278" height="8.35386" filterUnits="userSpaceOnUse" color-interpolation-filters="sRGB">
<feFlood flood-opacity="0" result="BackgroundImageFix"/>
<feBlend mode="normal" in="SourceGraphic" in2="BackgroundImageFix" result="shape"/>
<feGaussianBlur stdDeviation="0.5" result="effect1_foregroundBlur_0_28"/>
</filter>
<filter id="filter4_f_0_28" x="1.55682" y="23.9311" width="20.3692" height="6" filterUnits="userSpaceOnUse" color-interpolation-filters="sRGB">
<feFlood flood-opacity="0" result="BackgroundImageFix"/>
<feBlend mode="normal" in="SourceGraphic" in2="BackgroundImageFix" result="shape"/>
<feGaussianBlur stdDeviation="1" result="effect1_foregroundBlur_0_28"/>
</filter>
<radialGradient id="paint0_radial_0_28" cx="0" cy="0" r="1" gradientUnits="userSpaceOnUse" gradientTransform="translate(14.3484 14.5) rotate(48.4239) scale(10.3599 12.3556)">
<stop offset="0.244777" stop-color="#412F2D"/>
<stop offset="1" stop-color="#412F2D" stop-opacity="0"/>
</radialGradient>
<linearGradient id="paint1_linear_0_28" x1="31.44" y1="22.2384" x2="22.8548" y2="23.257" gradientUnits="userSpaceOnUse">
<stop stop-color="#614B48"/>
<stop offset="1" stop-color="#614B48" stop-opacity="0"/>
</linearGradient>
<linearGradient id="paint2_linear_0_28" x1="16" y1="30.875" x2="15.6512" y2="26.862" gradientUnits="userSpaceOnUse">
<stop offset="0.12543" stop-color="#3F2232"/>
<stop offset="1" stop-color="#3F2232" stop-opacity="0"/>
</linearGradient>
<linearGradient id="paint3_linear_0_28" x1="16" y1="30.0234" x2="16" y2="29.5781" gradientUnits="userSpaceOnUse">
<stop stop-color="#543F58"/>
<stop offset="1" stop-color="#543F58" stop-opacity="0"/>
</linearGradient>
<radialGradient id="paint4_radial_0_28" cx="0" cy="0" r="1" gradientUnits="userSpaceOnUse" gradientTransform="translate(27.6095 28.1112) rotate(-121.741) scale(19.7821 38.1448)">
<stop offset="0.90981" stop-color="#504544" stop-opacity="0"/>
<stop offset="1" stop-color="#504544"/>
</radialGradient>
<radialGradient id="paint5_radial_0_28" cx="0" cy="0" r="1" gradientUnits="userSpaceOnUse" gradientTransform="translate(25.6119 19.0855) rotate(180) scale(3.65402 5.03515)">
<stop stop-color="#685250"/>
<stop offset="1" stop-color="#685250" stop-opacity="0"/>
</radialGradient>
<linearGradient id="paint6_linear_0_28" x1="27.694" y1="21.4803" x2="20.5216" y2="21.2882" gradientUnits="userSpaceOnUse">
<stop stop-color="#573D3A"/>
<stop offset="1" stop-color="#3E2829"/>
</linearGradient>
<linearGradient id="paint7_linear_0_28" x1="4.81148" y1="27.3676" x2="15.07" y2="27.3676" gradientUnits="userSpaceOnUse">
<stop stop-color="#4D3536"/>
<stop offset="1" stop-color="#4D3536" stop-opacity="0"/>
</linearGradient>
</defs>
</svg>

<svg width="100%" height="100%" viewBox="0 0 32 32" xmlns="http://www.w3.org/2000/svg"><g filter="url(#a)"><path fill="#482F2E" d="M29.783 24.724c-.618-2.731-1.462-2.726-1.669-6.365-.207-3.638-.672-8.297-6.016-8.297-2.437 0-5.642 1.414-5.828 6.594 0 3.702-4.75 5.797-7.145 6.814-.793.337-2.156.968-2.948.968-.47 0-.789-.307-1.329-.297-1.937 0-2.765 1.797-2.765 3.078s.87 2.705 2.872 2.705h20.878c3.011 0 4.569-2.47 3.95-5.2"/><path fill="url(#b)" d="M29.783 24.724c-.618-2.731-1.462-2.726-1.669-6.365-.207-3.638-.672-8.297-6.016-8.297-2.437 0-5.642 1.414-5.828 6.594 0 3.702-4.75 5.797-7.145 6.814-.793.337-2.156.968-2.948.968-.47 0-.789-.307-1.329-.297-1.937 0-2.765 1.797-2.765 3.078s.87 2.705 2.872 2.705h20.878c3.011 0 4.569-2.47 3.95-5.2"/></g><path fill="url(#c)" d="M29.783 24.724c-.618-2.731-1.462-2.726-1.669-6.365-.207-3.638-.672-8.297-6.016-8.297-2.437 0-5.642 1.414-5.828 6.594 0 3.702-4.75 5.797-7.145 6.814-.793.337-2.156.968-2.948.968-.47 0-.789-.307-1.329-.297-1.937 0-2.765 1.797-2.765 3.078s.87 2.705 2.872 2.705h20.878c3.011 0 4.569-2.47 3.95-5.2"/><path fill="url(#d)" d="M29.783 24.724c-.618-2.731-1.462-2.726-1.669-6.365-.207-3.638-.672-8.297-6.016-8.297-2.437 0-5.642 1.414-5.828 6.594 0 3.702-4.75 5.797-7.145 6.814-.793.337-2.156.968-2.948.968-.47 0-.789-.307-1.329-.297-1.937 0-2.765 1.797-2.765 3.078s.87 2.705 2.872 2.705h20.878c3.011 0 4.569-2.47 3.95-5.2"/><path fill="url(#e)" d="M29.783 24.724c-.618-2.731-1.462-2.726-1.669-6.365-.207-3.638-.672-8.297-6.016-8.297-2.437 0-5.642 1.414-5.828 6.594 0 3.702-4.75 5.797-7.145 6.814-.793.337-2.156.968-2.948.968-.47 0-.789-.307-1.329-.297-1.937 0-2.765 1.797-2.765 3.078s.87 2.705 2.872 2.705h20.878c3.011 0 4.569-2.47 3.95-5.2"/><path fill="url(#f)" d="M29.783 24.724c-.618-2.731-1.462-2.726-1.669-6.365-.207-3.638-.672-8.297-6.016-8.297-2.437 0-5.642 1.414-5.828 6.594 0 3.702-4.75 5.797-7.145 6.814-.793.337-2.156.968-2.948.968-.47 0-.789-.307-1.329-.297-1.937 0-2.765 1.797-2.765 3.078s.87 2.705 2.872 2.705h20.878c3.011 0 4.569-2.47 3.95-5.2"/><g filter="url(#g)"><path fill="#64504E" d="M24.788 11.84c-.946 0-1.636 1.128-1.386 2.04.39 1.425.623 3.096.682 4.141.102 1.781.395 2.472.721 3.24.207.487.427 1.006.62 1.855.497 2.186-.754 4.162-3.172 4.162h3.649c.81 0 3.945 0 2.701-3.718-.223-.474-.473-.94-.692-1.348a14 14 0 0 1-.485-.952c-.326-.767-.393-1.458-.495-3.239-.082-1.446-.495-4.091-1.2-5.623-.167-.361-.545-.559-.943-.559"/></g><g filter="url(#h)"><circle cx="23.426" cy="19.085" r="3.086" fill="url(#i)"/></g><g filter="url(#j)"><path fill="url(#k)" d="M20.055 17.478a.48.48 0 0 0-.4.207 3.964 3.964 0 1 0 6.762.234 3.085 3.085 0 1 1-5.806.41c.107-.389-.152-.851-.556-.851"/></g><g filter="url(#l)"><path stroke="url(#m)" stroke-linecap="round" stroke-width="2" d="M4.557 26.931h14.369"/></g><defs><linearGradient id="c" x1="31.44" x2="22.855" y1="22.238" y2="23.257" gradientUnits="userSpaceOnUse"><stop stop-color="#614B48"/><stop offset="1" stop-color="#614B48" stop-opacity="0"/></linearGradient><linearGradient id="d" x1="16" x2="15.651" y1="30.875" y2="26.862" gradientUnits="userSpaceOnUse"><stop offset=".125" stop-color="#3F2232"/><stop offset="1" stop-color="#3F2232" stop-opacity="0"/></linearGradient><linearGradient id="e" x1="16" x2="16" y1="30.023" y2="29.578" gradientUnits="userSpaceOnUse"><stop stop-color="#543F58"/><stop offset="1" stop-color="#543F58" stop-opacity="0"/></linearGradient><linearGradient id="k" x1="27.694" x2="20.522" y1="21.48" y2="21.288" gradientUnits="userSpaceOnUse"><stop stop-color="#573D3A"/><stop offset="1" stop-color="#3E2829"/></linearGradient><linearGradient id="m" x1="4.811" x2="15.07" y1="27.368" y2="27.368" gradientUnits="userSpaceOnUse"><stop stop-color="#4D3536"/><stop offset="1" stop-color="#4D3536" stop-opacity="0"/></linearGradient><filter id="a" width="28.334" height="21.361" x="2.083" y="9.062" color-interpolation-filters="sRGB" filterUnits="userSpaceOnUse"><feFlood flood-opacity="0" result="BackgroundImageFix"/><feBlend in="SourceGraphic" in2="BackgroundImageFix" result="shape"/><feColorMatrix in="SourceAlpha" result="hardAlpha" values="0 0 0 0 0 0 0 0 0 0 0 0 0 0 0 0 0 0 127 0"/><feOffset dy="-1"/><feGaussianBlur stdDeviation="1.5"/><feComposite in2="hardAlpha" k2="-1" k3="1" operator="arithmetic"/><feColorMatrix values="0 0 0 0 0.266667 0 0 0 0 0.164706 0 0 0 0 0.262745 0 0 0 1 0"/><feBlend in2="shape" result="effect1_innerShadow_0_28"/><feColorMatrix in="SourceAlpha" result="hardAlpha" values="0 0 0 0 0 0 0 0 0 0 0 0 0 0 0 0 0 0 127 0"/><feOffset dx=".5" dy=".5"/><feGaussianBlur stdDeviation="1"/><feComposite in2="hardAlpha" k2="-1" k3="1" operator="arithmetic"/><feColorMatrix values="0 0 0 0 0.309804 0 0 0 0 0.254902 0 0 0 0 0.247059 0 0 0 1 0"/><feBlend in2="effect1_innerShadow_0_28" result="effect2_innerShadow_0_28"/></filter><filter id="g" width="11.639" height="20.439" x="19.753" y="9.339" color-interpolation-filters="sRGB" filterUnits="userSpaceOnUse"><feFlood flood-opacity="0" result="BackgroundImageFix"/><feBlend in="SourceGraphic" in2="BackgroundImageFix" result="shape"/><feGaussianBlur result="effect1_foregroundBlur_0_28" stdDeviation="1.25"/></filter><filter id="h" width="8.171" height="8.171" x="19.34" y="15" color-interpolation-filters="sRGB" filterUnits="userSpaceOnUse"><feFlood flood-opacity="0" result="BackgroundImageFix"/><feBlend in="SourceGraphic" in2="BackgroundImageFix" result="shape"/><feGaussianBlur result="effect1_foregroundBlur_0_28" stdDeviation=".5"/></filter><filter id="j" width="9.928" height="8.354" x="18" y="16.478" color-interpolation-filters="sRGB" filterUnits="userSpaceOnUse"><feFlood flood-opacity="0" result="BackgroundImageFix"/><feBlend in="SourceGraphic" in2="BackgroundImageFix" result="shape"/><feGaussianBlur result="effect1_foregroundBlur_0_28" stdDeviation=".5"/></filter><filter id="l" width="20.369" height="6" x="1.557" y="23.931" color-interpolation-filters="sRGB" filterUnits="userSpaceOnUse"><feFlood flood-opacity="0" result="BackgroundImageFix"/><feBlend in="SourceGraphic" in2="BackgroundImageFix" result="shape"/><feGaussianBlur result="effect1_foregroundBlur_0_28" stdDeviation="1"/></filter><radialGradient id="b" cx="0" cy="0" r="1" gradientTransform="matrix(6.87498 7.74998 -9.24292 8.19935 14.348 14.5)" gradientUnits="userSpaceOnUse"><stop offset=".245" stop-color="#412F2D"/><stop offset="1" stop-color="#412F2D" stop-opacity="0"/></radialGradient><radialGradient id="f" cx="0" cy="0" r="1" gradientTransform="rotate(-121.741 21.637 6.363)scale(19.7821 38.1448)" gradientUnits="userSpaceOnUse"><stop offset=".91" stop-color="#504544" stop-opacity="0"/><stop offset="1" stop-color="#504544"/></radialGradient><radialGradient id="i" cx="0" cy="0" r="1" gradientTransform="matrix(-3.65402 0 0 -5.03515 25.612 19.085)" gradientUnits="userSpaceOnUse"><stop stop-color="#685250"/><stop offset="1" stop-color="#685250" stop-opacity="0"/></radialGradient></defs></svg>
